X: 2052
T: Zülfün Görenlerin Hep...
C: Ali Rıfat Çağatay
O: Turkey
F: http://compmusic.upf.edu/node/140
N: nihavent--beste--lenkfahte--zulfun_gorenlerin--ali_rifat_cagatay
N: makam= nihavent
N: form= beste
N: usul= lenkfahte = 10/4
M: 10/4
L: 1/16
K: C _B _e  
Q: 1/4=72
%%MIDI tuningsystem comma53
G4 G4 d8 .c4 B4 z2c4e2 d2c2 B2A2  | \
w:  Ah  zül fün  *  gö ren  | 
G4 G4 z2G4A2 B4 B2A2 A2G2 G2^F2 G8  | 
w:  *  le rin  *  *  *  *  hep   | 
z4 G4 d8 e4 d4 z2g4b2 a2g2 ^f2e2  | \
w:  bah tı  *  si yah   | 
.d4 a2g2 z2^9/8f4g2 f2e2 e2d2 d2f2 e2d2 d8  | 
w:  *  o *  lur *  *  *  *  *  muş    | 
z4 d4 g6^f2 g3e d4 z2c4e2 d2c2 B2c2  | \
w:  Tek  zül *  *  *  fü nü   | 
d2e2 f2g2 z2d4c2 B4 d4 c2B2 AdcB B8  | 
w:  *  *  *  gö rey *  *  *  dim   | 
z4 G2A2 B6A2 G4 d4 z2c4B2 B2A4G2  | \
w:  bah *  tım  *  *  si yah   | 
A2B2 c2d2 c2B4A2 A2B2 A2G2 A2G2 ^F2A2 G8  | 
w:  yah  *  *  o lay *  *  *  *  *  *  dı    | 
z4 G4 d8 c4 B4 z2c4e2 d2c2 B2c2  | \
w:  Hey  yâ *  ri  men   | 
.d4 .B4 d2c4d2 c4 B2A2 A2c2 B2A2 G8  | 
w:  hey  hey  mî  *  *  *  ri  *  men   | 
z4 G4 d8 e4 ^f4 z2g4b2 a2g2 f2e2  | \
w:  hey  câ *  nı  men   | 
d8 a2g4a2 ^f4 e2d2 d2g2 f2e2 d8  | 
w:  sul ta *  *  *  nı  *  men   | 
z4 d4 g8 f4 e4 f2d4c2 d4 B4  | d4 c2B2 A8 A2B2 G4 z2G4A2 B3A G4  | 
w:  Hey  hey  *  *  *  te  ne  nen  dir   |  til  lil  *  lâ  *  *  na  te  ne  nen  *  ni   | 
z4 G4 d8 B4 A4 z2G4A2 B2c2 B2A2  | \
w:  bah tım  *  si yah   | 
d2c2 B2A2 z2G4A2 B4 B2A2 A2G2 G2^F2 G4 z4  | 
w:  *  *  *  o lay *  *  *  *  dı    | 
z4 .b4 f8 g2a2 f4 z2d4f2 f2e4d2  | \
w:  Güç müş  *  *  ve fâ   | 
.d4 ^c2d2 ^f2e4d2 c4 d4 d2f2 e2d2 d8  | 
w:  *  yo *  lun *  *  *  da   | 
z4 d4 g12 g4 z2b2 a2g2 f2g2 a2g2  | \
w:  Nev res  mu ra  | 
c'4 b2a2 a2g4f2 f2g2 abag g8 z8  | 
w:  da  *  *  *  er *  *  mek    | 
z4 f4 g12 _2/4e4 z2f4b2 a2g2 f2e2  | \
w:  Ey  kaş_ ı  kûy_  | 
d2c2 a2g2 z2f4g2 f4 _3/4e2d2 d2f2 e2d2 d8  | 
w:  *  *  i  *  yâ *  *  *  *  re   | 
z4 d2_2/4e2 f12 f4 z2a2 _3/4g2f2 e2d2 e2f2  | \
w:  bir  *  baş ka  râh   | 
_2/4e2f2 _3/4g2a2 g2f4e2 d2e2 f2g2 f2_3/4e2 e2d2 d8  | 
w:  *  *  *  o lay *  *  *  *  *  *  dı    | 
z4 G4 d8 c4 B4 z2c4e2 d2c2 B2c2  | \
w:  Hey  yâ *  ri  men   | 
.d4 .B4 d2c4d2 c4 B2A2 A2c2 B2A2 G8  | 
w:  hey  hey  mî  *  *  *  ri  *  men   | 
z4 G4 d8 e4 ^f4 z2g4b2 a2g2 f2e2  | \
w:  hey  câ *  nı  men   | 
d8 a2g4a2 ^f4 e2d2 d2g2 f2e2 d8  | 
w:  sul ta *  *  *  nı  *  men   | 
z4 d4 g8 f4 e4 f2d4c2 d4 B4  | d4 c2B2 A8 A2B2 G4 z2G4A2 B3A G4  | 
w:  Hey  hey  *  *  *  te  ne  nen  dir   |  til  lil  *  lâ  *  *  na  te  ne  nen  *  ni   | 
z4 G4 d8 B4 A4 z2G4A2 B2c2 B2A2  | \
w:  bah tım  *  si yah   | 
d2c2 B2A2 z2G4A2 B4 B2A2 A2G2 G2^F2 G4 z4  | 
w:  *  *  *  o lay *  *  *  *  dı    | 
|


